; generated by PrusaSlicer 2.1.0+win64 on 2019-12-21 at 20:44:48 UTC

; 

; external perimeters extrusion width = 0.45mm
; perimeters extrusion width = 0.45mm
; infill extrusion width = 0.45mm
; solid infill extrusion width = 0.45mm
; top infill extrusion width = 0.40mm
; first layer extrusion width = 0.42mm

M73 P0 R53
M73 Q0 S53
M201 X1000 Y1000 Z1000 E5000 ; sets maximum accelerations, mm/sec^2
M203 X200 Y200 Z12 E120 ; sets maximum feedrates, mm/sec
M204 P1250 R1250 T1250 ; sets acceleration (P, T) and retract acceleration (R), mm/sec^2
M205 X8.00 Y8.00 Z0.40 E1.50 ; sets the jerk limits, mm/sec
M205 S0 T0 ; sets the minimum extruding and travel feed rate, mm/sec
M107
M862.3 P "MK3" ; printer model check
M862.1 P0.4 ; nozzle diameter check
M115 U3.8.1 ; tell printer latest fw version
G90 ; use absolute coordinates
M83 ; extruder relative mode
M104 S215 ; set extruder temp
M140 S60 ; set bed temp
M190 S60 ; wait for bed temp
M109 S215 ; wait for extruder temp
G28 W ; home all without mesh bed level
G80 ; mesh bed leveling
G1 Y-3.0 F1000.0 ; go outside print area
G92 E0.0
G1 X60.0 E9.0 F1000.0 ; intro line
M73 Q0 S53
M73 P0 R53
G1 X100.0 E12.5 F1000.0 ; intro line
G92 E0.0
M221 S95
G21 ; set units to millimeters
G90 ; use absolute coordinates
M83 ; use relative distances for extrusion
M900 K30 ; Filament gcode
;BEFORE_LAYER_CHANGE
G92 E0.0
;0.2


G1 E-0.80000 F2100.00000
G1 Z0.600 F10800.000
;AFTER_LAYER_CHANGE
;0.2
G1 X113.160 Y87.155
G1 Z0.200
G1 E0.80000 F2100.00000
M204 S1000
G1 F1200
G1 X113.653 Y86.760 E0.01980
G1 X114.227 Y86.497 E0.01980
G1 X114.852 Y86.382 E0.01992
G1 X135.004 Y86.378 E0.63185
G1 X135.947 Y86.559 E0.03010
G1 X136.757 Y87.074 E0.03010
G1 X137.323 Y87.854 E0.03022
G1 X137.561 Y88.784 E0.03010
G1 X137.565 Y121.084 E1.01275
G1 X137.475 Y121.733 E0.02054
G1 X137.223 Y122.338 E0.02054
G1 X136.834 Y122.850 E0.02017
G1 X136.330 Y123.250 E0.02017
G1 X135.739 Y123.513 E0.02029
G1 X135.105 Y123.620 E0.02017
G1 X114.960 Y123.622 E0.63160
G1 X114.316 Y123.529 E0.02042
G1 X113.719 Y123.279 E0.02029
G1 X113.198 Y122.882 E0.02054
G1 X112.796 Y122.370 E0.02042
G1 X112.536 Y121.773 E0.02042
G1 X112.435 Y121.125 E0.02054
G1 X112.435 Y88.916 E1.00990
G1 X112.525 Y88.267 E0.02054
G1 X112.777 Y87.662 E0.02054
G1 X113.124 Y87.203 E0.01804
G1 F8640
G1 X113.653 Y86.760 E-0.15929
G1 X114.227 Y86.497 E-0.14583
G1 X114.852 Y86.382 E-0.14673
G1 X116.187 Y86.382 E-0.30815
G1 E-0.04000 F2100.00000
G1 Z0.800 F10800.000
G1 X135.813 Y86.912
G1 Z0.200
G1 E0.80000 F2100.00000
G1 F1200
G1 X136.507 Y87.357 E0.02586
G1 X136.988 Y88.028 E0.02586
G1 X137.185 Y88.828 E0.02586
G1 X137.188 Y121.075 E1.01106
G1 X137.110 Y121.638 E0.01783
G1 X136.891 Y122.158 E0.01771
G1 X136.556 Y122.595 E0.01726
G1 X136.123 Y122.935 E0.01726
G1 X135.619 Y123.156 E0.01726
G1 X135.075 Y123.244 E0.01726
G1 X114.967 Y123.245 E0.63048
G1 X114.415 Y123.165 E0.01749
G1 X113.898 Y122.947 E0.01760
G1 X113.456 Y122.607 E0.01749
G1 X113.114 Y122.167 E0.01749
G1 X112.896 Y121.657 E0.01737
G1 X112.812 Y121.106 E0.01749
G1 X112.812 Y88.925 E1.00900
G1 X112.890 Y88.362 E0.01783
G1 X113.109 Y87.842 E0.01771
G1 X113.439 Y87.410 E0.01703
G1 X113.865 Y87.073 E0.01703
G1 X114.360 Y86.851 E0.01703
G1 X114.892 Y86.758 E0.01692
G1 X135.004 Y86.755 E0.63059
G1 X135.754 Y86.900 E0.02398
G1 F8640
G1 X136.507 Y87.357 E-0.20336
G1 X136.988 Y88.028 E-0.19042
G1 X137.185 Y88.828 E-0.19042
G1 X137.186 Y89.590 E-0.17580
G1 E-0.04000 F2100.00000
G1 Z0.800 F10800.000
G1 X131.087 Y91.785
G1 Z0.200
G1 E0.80000 F2100.00000
G1 F1200
G1 X131.087 Y118.215 E0.82869
G1 X118.913 Y118.215 E0.38171
G1 X118.913 Y91.785 E0.82869
G1 X131.027 Y91.785 E0.37983
G1 X130.710 Y92.162 F10800.000
G1 F1200
G1 X130.710 Y117.838 E0.80505
G1 X119.290 Y117.838 E0.35807
G1 X119.290 Y92.162 E0.80505
G1 X130.650 Y92.162 E0.35618
G1 X131.081 Y92.012 F10800.000
G1 F8640
G1 X130.658 Y95.453 E-0.76000
G1 E-0.04000 F2100.00000
G1 Z0.800 F10800.000
G1 X134.413 Y89.931
G1 Z0.200
G1 E0.80000 F2100.00000
G1 F1200
G1 X134.413 Y120.069 E0.94497
G1 X115.587 Y120.069 E0.59027
G1 X115.587 Y89.931 E0.94497
G1 X134.353 Y89.931 E0.58839
G1 X134.790 Y89.554 F10800.000
G1 F1200
G1 X134.790 Y120.446 E0.96862
G1 X115.210 Y120.446 E0.61392
G1 X115.210 Y89.554 E0.96862
G1 X134.730 Y89.554 E0.61204
G1 X134.715 Y89.947 F10800.000
G1 F8640
G1 X134.736 Y92.845 E-0.76000
G1 E-0.04000 F2100.00000
G1 Z0.800 F10800.000
G1 X134.300 Y90.807
G1 Z0.200
G1 E0.80000 F2100.00000
G1 F1200
G1 X133.706 Y90.214 E0.02635
G1 X133.172 Y90.214 E0.01676
G1 X134.130 Y91.171 E0.04252
G1 X134.130 Y91.705 E0.01676
G1 X132.638 Y90.214 E0.06623
G1 X132.104 Y90.214 E0.01676
G1 X134.130 Y92.239 E0.08993
G1 X134.130 Y92.773 E0.01676
G1 X131.571 Y90.214 E0.11364
G1 X131.037 Y90.214 E0.01676
G1 X134.130 Y93.307 E0.13734
G1 X134.130 Y93.841 E0.01676
G1 X130.503 Y90.214 E0.16104
G1 X129.969 Y90.214 E0.01676
G1 X134.130 Y94.375 E0.18475
G1 X134.130 Y94.909 E0.01676
G1 X131.370 Y92.149 E0.12255
G1 X131.370 Y92.682 E0.01676
G1 X134.130 Y95.443 E0.12255
G1 X134.130 Y95.977 E0.01676
G1 X131.370 Y93.216 E0.12255
G1 X131.370 Y93.750 E0.01676
G1 X134.130 Y96.511 E0.12255
G1 X134.130 Y97.045 E0.01676
G1 X131.370 Y94.284 E0.12255
G1 X131.370 Y94.818 E0.01676
G1 X134.130 Y97.578 E0.12255
G1 X134.130 Y98.112 E0.01676
G1 X131.370 Y95.352 E0.12255
G1 X131.370 Y95.886 E0.01676
G1 X134.130 Y98.646 E0.12255
G1 X134.130 Y99.180 E0.01676
G1 X131.370 Y96.420 E0.12255
G1 X131.370 Y96.954 E0.01676
G1 X134.130 Y99.714 E0.12255
G1 X134.130 Y100.248 E0.01676
G1 X131.370 Y97.488 E0.12255
G1 X131.370 Y98.022 E0.01676
G1 X134.130 Y100.782 E0.12255
G1 X134.130 Y101.316 E0.01676
G1 X131.370 Y98.556 E0.12255
G1 X131.370 Y99.090 E0.01676
G1 X134.130 Y101.850 E0.12255
G1 X134.130 Y102.384 E0.01676
G1 X131.370 Y99.624 E0.12255
G1 X131.370 Y100.157 E0.01676
G1 X134.130 Y102.918 E0.12255
G1 X134.130 Y103.452 E0.01676
G1 X131.370 Y100.691 E0.12255
G1 X131.370 Y101.225 E0.01676
G1 X134.130 Y103.986 E0.12255
G1 X134.130 Y104.519 E0.01676
G1 X131.370 Y101.759 E0.12255
G1 X131.370 Y102.293 E0.01676
G1 X134.130 Y105.053 E0.12255
G1 X134.130 Y105.587 E0.01676
G1 X131.370 Y102.827 E0.12255
G1 X131.370 Y103.361 E0.01676
G1 X134.130 Y106.121 E0.12255
G1 X134.130 Y106.655 E0.01676
G1 X131.370 Y103.895 E0.12255
G1 X131.370 Y104.429 E0.01676
G1 X134.130 Y107.189 E0.12255
G1 X134.130 Y107.723 E0.01676
G1 X131.370 Y104.963 E0.12255
G1 X131.370 Y105.497 E0.01676
G1 X134.130 Y108.257 E0.12255
G1 X134.130 Y108.791 E0.01676
G1 X131.370 Y106.031 E0.12255
G1 X131.370 Y106.565 E0.01676
G1 X134.130 Y109.325 E0.12255
G1 X134.130 Y109.859 E0.01676
G1 X131.370 Y107.098 E0.12255
G1 X131.370 Y107.632 E0.01676
G1 X134.130 Y110.393 E0.12255
G1 X134.130 Y110.927 E0.01676
G1 X131.370 Y108.166 E0.12255
G1 X131.370 Y108.700 E0.01676
G1 X134.130 Y111.461 E0.12255
G1 X134.130 Y111.994 E0.01676
G1 X131.370 Y109.234 E0.12255
G1 X131.370 Y109.768 E0.01676
G1 X134.130 Y112.528 E0.12255
G1 X134.130 Y113.062 E0.01676
G1 X131.370 Y110.302 E0.12255
G1 X131.370 Y110.836 E0.01676
G1 X134.130 Y113.596 E0.12255
G1 X134.130 Y114.130 E0.01676
G1 X131.370 Y111.370 E0.12255
G1 X131.370 Y111.904 E0.01676
G1 X134.130 Y114.664 E0.12255
G1 X134.130 Y115.198 E0.01676
G1 X131.370 Y112.438 E0.12255
G1 X131.370 Y112.972 E0.01676
G1 X134.130 Y115.732 E0.12255
G1 X134.130 Y116.266 E0.01676
G1 X131.370 Y113.506 E0.12255
G1 X131.370 Y114.040 E0.01676
G1 X134.130 Y116.800 E0.12255
G1 X134.130 Y117.334 E0.01676
G1 X131.370 Y114.573 E0.12255
G1 X131.370 Y115.107 E0.01676
G1 X134.130 Y117.868 E0.12255
G1 X134.130 Y118.402 E0.01676
G1 X131.370 Y115.641 E0.12255
G1 X131.370 Y116.175 E0.01676
G1 X134.130 Y118.936 E0.12255
G1 X134.130 Y119.469 E0.01676
G1 X131.370 Y116.709 E0.12255
G1 X131.370 Y117.243 E0.01676
G1 X133.913 Y119.786 E0.11292
G1 X133.379 Y119.786 E0.01676
G1 X131.370 Y117.777 E0.08921
G1 X131.370 Y118.311 E0.01676
G1 X132.845 Y119.786 E0.06551
G1 X132.311 Y119.786 E0.01676
G1 X131.023 Y118.498 E0.05721
G1 X130.489 Y118.498 E0.01676
G1 X131.778 Y119.786 E0.05721
G1 X131.244 Y119.786 E0.01676
G1 X129.955 Y118.498 E0.05721
G1 X129.421 Y118.498 E0.01676
G1 X130.710 Y119.786 E0.05721
G1 X130.176 Y119.786 E0.01676
G1 X128.887 Y118.498 E0.05721
G1 X128.353 Y118.498 E0.01676
G1 X129.642 Y119.786 E0.05721
G1 X129.108 Y119.786 E0.01676
G1 X127.819 Y118.498 E0.05721
G1 X127.285 Y118.498 E0.01676
G1 X128.574 Y119.786 E0.05721
G1 X128.040 Y119.786 E0.01676
G1 X126.751 Y118.498 E0.05721
G1 X126.217 Y118.498 E0.01676
G1 X127.506 Y119.786 E0.05721
G1 X126.972 Y119.786 E0.01676
G1 X125.684 Y118.498 E0.05721
G1 X125.150 Y118.498 E0.01676
G1 X126.438 Y119.786 E0.05721
G1 X125.904 Y119.786 E0.01676
G1 X124.616 Y118.498 E0.05721
G1 X124.082 Y118.498 E0.01676
G1 X125.370 Y119.786 E0.05721
G1 X124.837 Y119.786 E0.01676
G1 X123.548 Y118.498 E0.05721
G1 X123.014 Y118.498 E0.01676
G1 X124.303 Y119.786 E0.05721
G1 X123.769 Y119.786 E0.01676
G1 X122.480 Y118.498 E0.05721
G1 X121.946 Y118.498 E0.01676
G1 X123.235 Y119.786 E0.05721
G1 X122.701 Y119.786 E0.01676
G1 X121.412 Y118.498 E0.05721
G1 X120.878 Y118.498 E0.01676
G1 X122.167 Y119.786 E0.05721
G1 X121.633 Y119.786 E0.01676
G1 X120.344 Y118.498 E0.05721
G1 X119.810 Y118.498 E0.01676
G1 X121.099 Y119.786 E0.05721
G1 X120.565 Y119.786 E0.01676
G1 X119.107 Y118.328 E0.06475
G1 F8640
G1 X120.565 Y119.786 E-0.47623
G1 X121.099 Y119.786 E-0.12329
G1 X120.608 Y119.295 E-0.16049
G1 E-0.04000 F2100.00000
G1 Z0.800 F10800.000
G1 X115.700 Y119.193
G1 Z0.200
G1 E0.80000 F2100.00000
G1 F1200
G1 X116.294 Y119.786 E0.02635
G1 X116.828 Y119.786 E0.01676
G1 X115.870 Y118.829 E0.04252
G1 X115.870 Y118.295 E0.01676
G1 X117.362 Y119.786 E0.06622
G1 X117.895 Y119.786 E0.01676
G1 X115.870 Y117.761 E0.08993
G1 X115.870 Y117.227 E0.01676
G1 X118.429 Y119.786 E0.11363
G1 X118.963 Y119.786 E0.01676
G1 X115.870 Y116.693 E0.13734
G1 X115.870 Y116.159 E0.01676
G1 X119.497 Y119.786 E0.16104
G1 X120.031 Y119.786 E0.01676
G1 X115.870 Y115.625 E0.18475
G1 X115.870 Y115.091 E0.01676
G1 X118.630 Y117.852 E0.12255
G1 X118.630 Y117.318 E0.01676
G1 X115.870 Y114.557 E0.12255
G1 X115.870 Y114.023 E0.01676
G1 X118.630 Y116.784 E0.12255
G1 X118.630 Y116.250 E0.01676
G1 X115.870 Y113.489 E0.12255
G1 X115.870 Y112.956 E0.01676
G1 X118.630 Y115.716 E0.12255
G1 X118.630 Y115.182 E0.01676
G1 X115.870 Y112.422 E0.12255
G1 X115.870 Y111.888 E0.01676
G1 X118.630 Y114.648 E0.12255
G1 X118.630 Y114.114 E0.01676
G1 X115.870 Y111.354 E0.12255
G1 X115.870 Y110.820 E0.01676
G1 X118.630 Y113.580 E0.12255
G1 X118.630 Y113.046 E0.01676
G1 X115.870 Y110.286 E0.12255
G1 X115.870 Y109.752 E0.01676
G1 X118.630 Y112.512 E0.12255
G1 X118.630 Y111.978 E0.01676
G1 X115.870 Y109.218 E0.12255
G1 X115.870 Y108.684 E0.01676
G1 X118.630 Y111.444 E0.12255
G1 X118.630 Y110.910 E0.01676
G1 X115.870 Y108.150 E0.12255
G1 X115.870 Y107.616 E0.01676
G1 X118.630 Y110.377 E0.12255
G1 X118.630 Y109.843 E0.01676
G1 X115.870 Y107.082 E0.12255
G1 X115.870 Y106.548 E0.01676
G1 X118.630 Y109.309 E0.12255
G1 X118.630 Y108.775 E0.01676
G1 X115.870 Y106.014 E0.12255
G1 X115.870 Y105.481 E0.01676
G1 X118.630 Y108.241 E0.12255
G1 X118.630 Y107.707 E0.01676
G1 X115.870 Y104.947 E0.12255
G1 X115.870 Y104.413 E0.01676
G1 X118.630 Y107.173 E0.12255
G1 X118.630 Y106.639 E0.01676
G1 X115.870 Y103.879 E0.12255
G1 X115.870 Y103.345 E0.01676
G1 X118.630 Y106.105 E0.12255
G1 X118.630 Y105.571 E0.01676
G1 X115.870 Y102.811 E0.12255
G1 X115.870 Y102.277 E0.01676
G1 X118.630 Y105.037 E0.12255
G1 X118.630 Y104.503 E0.01676
G1 X115.870 Y101.743 E0.12255
G1 X115.870 Y101.209 E0.01676
G1 X118.630 Y103.969 E0.12255
G1 X118.630 Y103.436 E0.01676
G1 X115.870 Y100.675 E0.12255
G1 X115.870 Y100.141 E0.01676
G1 X118.630 Y102.902 E0.12255
M73 Q2 S52
G1 X118.630 Y102.368 E0.01676
G1 X115.870 Y99.607 E0.12255
G1 X115.870 Y99.073 E0.01676
G1 X118.630 Y101.834 E0.12255
M73 P2 R52
G1 X118.630 Y101.300 E0.01676
G1 X115.870 Y98.540 E0.12255
G1 X115.870 Y98.006 E0.01676
G1 X118.630 Y100.766 E0.12255
G1 X118.630 Y100.232 E0.01676
G1 X115.870 Y97.472 E0.12255
G1 X115.870 Y96.938 E0.01676
G1 X118.630 Y99.698 E0.12255
G1 X118.630 Y99.164 E0.01676
G1 X115.870 Y96.404 E0.12255
G1 X115.870 Y95.870 E0.01676
G1 X118.630 Y98.630 E0.12255
G1 X118.630 Y98.096 E0.01676
G1 X115.870 Y95.336 E0.12255
G1 X115.870 Y94.802 E0.01676
G1 X118.630 Y97.562 E0.12255
G1 X118.630 Y97.028 E0.01676
G1 X115.870 Y94.268 E0.12255
G1 X115.870 Y93.734 E0.01676
G1 X118.630 Y96.494 E0.12255
G1 X118.630 Y95.961 E0.01676
G1 X115.870 Y93.200 E0.12255
G1 X115.870 Y92.666 E0.01676
G1 X118.630 Y95.427 E0.12255
G1 X118.630 Y94.893 E0.01676
G1 X115.870 Y92.132 E0.12255
G1 X115.870 Y91.598 E0.01676
G1 X118.630 Y94.359 E0.12255
G1 X118.630 Y93.825 E0.01676
G1 X115.870 Y91.065 E0.12255
G1 X115.870 Y90.531 E0.01676
G1 X118.630 Y93.291 E0.12255
G1 X118.630 Y92.757 E0.01676
G1 X116.087 Y90.214 E0.11292
G1 X116.621 Y90.214 E0.01676
G1 X118.630 Y92.223 E0.08922
G1 X118.630 Y91.689 E0.01676
G1 X117.155 Y90.214 E0.06551
G1 X117.688 Y90.214 E0.01676
G1 X118.977 Y91.502 E0.05721
G1 X119.511 Y91.502 E0.01676
G1 X118.222 Y90.214 E0.05721
G1 X118.756 Y90.214 E0.01676
G1 X120.045 Y91.502 E0.05721
G1 X120.579 Y91.502 E0.01676
G1 X119.290 Y90.214 E0.05721
G1 X119.824 Y90.214 E0.01676
G1 X121.113 Y91.502 E0.05721
G1 X121.647 Y91.502 E0.01676
G1 X120.358 Y90.214 E0.05721
G1 X120.892 Y90.214 E0.01676
G1 X122.181 Y91.502 E0.05721
G1 X122.715 Y91.502 E0.01676
G1 X121.426 Y90.214 E0.05721
G1 X121.960 Y90.214 E0.01676
G1 X123.249 Y91.502 E0.05721
G1 X123.782 Y91.502 E0.01676
G1 X122.494 Y90.214 E0.05721
G1 X123.028 Y90.214 E0.01676
G1 X124.316 Y91.502 E0.05721
G1 X124.850 Y91.502 E0.01676
G1 X123.562 Y90.214 E0.05721
G1 X124.096 Y90.214 E0.01676
G1 X125.384 Y91.502 E0.05721
G1 X125.918 Y91.502 E0.01676
G1 X124.630 Y90.214 E0.05721
G1 X125.163 Y90.214 E0.01676
G1 X126.452 Y91.502 E0.05721
G1 X126.986 Y91.502 E0.01676
G1 X125.697 Y90.214 E0.05721
G1 X126.231 Y90.214 E0.01676
G1 X127.520 Y91.502 E0.05721
G1 X128.054 Y91.502 E0.01676
G1 X126.765 Y90.214 E0.05721
G1 X127.299 Y90.214 E0.01676
G1 X128.588 Y91.502 E0.05721
G1 X129.122 Y91.502 E0.01676
G1 X127.833 Y90.214 E0.05721
G1 X128.367 Y90.214 E0.01676
G1 X129.656 Y91.502 E0.05721
G1 X130.190 Y91.502 E0.01676
G1 X128.901 Y90.214 E0.05721
G1 X129.435 Y90.214 E0.01676
G1 X130.893 Y91.672 E0.06475
M106 S255
;BEFORE_LAYER_CHANGE
G92 E0.0
;0.4


G1 F8640
G1 X129.435 Y90.214 E-0.47623
G1 X128.901 Y90.214 E-0.12329
G1 X129.392 Y90.705 E-0.16049
G1 E-0.04000 F2100.00000
G1 Z0.800 F10800.000
;AFTER_LAYER_CHANGE
;0.4
M104 S210 ; set temperature
G1 X135.947 Y86.559
G1 Z0.400
G1 E0.80000 F2100.00000
G1 F3000
G1 X136.757 Y87.074 E0.03010
G1 X137.323 Y87.854 E0.03022
G1 X137.561 Y88.784 E0.03010
G1 X137.565 Y121.084 E1.01275
G1 X137.475 Y121.733 E0.02054
G1 X137.223 Y122.338 E0.02054
G1 X136.834 Y122.850 E0.02017
G1 X136.330 Y123.250 E0.02017
G1 X135.739 Y123.513 E0.02029
G1 X135.105 Y123.620 E0.02017
G1 X114.960 Y123.622 E0.63160
G1 X114.316 Y123.529 E0.02042
G1 X113.719 Y123.279 E0.02029
G1 X113.198 Y122.882 E0.02054
G1 X112.796 Y122.370 E0.02042
G1 X112.536 Y121.773 E0.02042
G1 X112.435 Y121.125 E0.02054
G1 X112.435 Y88.916 E1.00990
G1 X112.525 Y88.267 E0.02054
G1 X112.777 Y87.662 E0.02054
G1 X113.160 Y87.155 E0.01992
G1 X113.653 Y86.760 E0.01980
G1 X114.227 Y86.497 E0.01980
G1 X114.852 Y86.382 E0.01992
G1 X135.004 Y86.378 E0.63185
G1 X135.888 Y86.548 E0.02821
G1 F8640
G1 X136.757 Y87.074 E-0.23458
G1 X137.323 Y87.854 E-0.22253
G1 X137.561 Y88.784 E-0.22164
G1 X137.561 Y89.136 E-0.08126
G1 E-0.04000 F2100.00000
G1 Z1.000 F10800.000
G1 X131.132 Y91.940
G1 Z0.400
G1 E0.80000 F2100.00000
M204 S800
G1 F3600
G1 X131.132 Y118.060 E0.88413
G1 X118.868 Y118.060 E0.41513
G1 X118.868 Y91.940 E0.88413
G1 X131.072 Y91.940 E0.41310
M204 S1000
G1 X130.725 Y92.347 F10800.000
M204 S800
G1 F2100
G1 X130.725 Y117.653 E0.85657
G1 X119.275 Y117.653 E0.38757
G1 X119.275 Y92.347 E0.85657
G1 X130.665 Y92.347 E0.38554
M204 S1000
G1 X131.096 Y92.198 F10800.000
G1 F8640
G1 X130.673 Y95.638 E-0.76000
G1 E-0.04000 F2100.00000
G1 Z1.000 F10800.000
G1 X134.368 Y89.776
G1 Z0.400
