; generated by PrusaSlicer 2.1.0+win64 on 2019-12-04 at 22:26:13 UTC

; 

; external perimeters extrusion width = 0.45mm
; perimeters extrusion width = 0.45mm
; infill extrusion width = 0.45mm
; solid infill extrusion width = 0.45mm
; top infill extrusion width = 0.40mm
; first layer extrusion width = 0.42mm

M73 P0 R27
M73 Q0 S27
M201 X1000 Y1000 Z1000 E5000 ; sets maximum accelerations, mm/sec^2
M203 X200 Y200 Z12 E120 ; sets maximum feedrates, mm/sec
M204 P1250 R1250 T1250 ; sets acceleration (P, T) and retract acceleration (R), mm/sec^2
M205 X8.00 Y8.00 Z0.40 E1.50 ; sets the jerk limits, mm/sec
M205 S0 T0 ; sets the minimum extruding and travel feed rate, mm/sec
M107
M862.3 P "MK3" ; printer model check
M862.1 P0.4 ; nozzle diameter check
M115 U3.8.1 ; tell printer latest fw version
G90 ; use absolute coordinates
M83 ; extruder relative mode
M104 S215 ; set extruder temp
M140 S60 ; set bed temp
M190 S60 ; wait for bed temp
M109 S215 ; wait for extruder temp
G28 W ; home all without mesh bed level
G80 ; mesh bed leveling
G1 Y-3.0 F1000.0 ; go outside print area
G92 E0.0
G1 X60.0 E9.0 F1000.0 ; intro line
M73 Q0 S27
M73 P0 R27
G1 X100.0 E12.5 F1000.0 ; intro line
G92 E0.0
M221 S95
G21 ; set units to millimeters
G90 ; use absolute coordinates
M83 ; use relative distances for extrusion
M900 K30 ; Filament gcode
;BEFORE_LAYER_CHANGE
G92 E0.0
;0.2


G1 E-0.80000 F2100.00000
G1 Z0.600 F10800.000
;AFTER_LAYER_CHANGE
;0.2
G1 X96.003 Y88.698
G1 Z0.200
G1 E0.80000 F2100.00000
M204 S1000
G1 F1200
G1 X96.981 Y87.935 E0.03888
G1 X98.205 Y87.404 E0.04182
G1 X99.530 Y87.210 E0.04200
G1 X150.406 Y87.209 E1.59516
G1 X151.353 Y87.299 E0.02984
G1 X152.262 Y87.562 E0.02967
G1 X153.111 Y87.992 E0.02984
G1 X153.866 Y88.572 E0.02984
G1 X154.500 Y89.282 E0.02984
G1 X154.987 Y90.093 E0.02967
G1 X155.318 Y90.985 E0.02984
G1 X155.476 Y91.918 E0.02967
G1 X155.474 Y118.112 E0.82129
G1 X155.234 Y119.295 E0.03784
G1 X154.726 Y120.383 E0.03766
G1 X153.973 Y121.326 E0.03784
G1 X153.019 Y122.065 E0.03784
G1 X151.795 Y122.596 E0.04182
G1 X150.470 Y122.790 E0.04200
G1 X99.444 Y122.788 E1.59988
G1 X98.192 Y122.592 E0.03974
G1 X97.027 Y122.092 E0.03974
G1 X96.021 Y121.320 E0.03974
G1 X95.235 Y120.319 E0.03992
G1 X94.712 Y119.122 E0.04096
G1 X94.511 Y117.831 E0.04096
G1 X94.517 Y92.027 E0.80907
G1 X94.734 Y90.806 E0.03888
G1 X95.239 Y89.674 E0.03888
G1 X95.966 Y88.745 E0.03700
G1 F8640
G1 X96.981 Y87.935 E-0.29977
G1 X98.205 Y87.404 E-0.30801
G1 X98.857 Y87.309 E-0.15222
G1 E-0.04000 F2100.00000
G1 Z0.800 F10800.000
G1 X97.130 Y88.235
G1 Z0.200
G1 E0.80000 F2100.00000
G1 F1200
G1 X99.053 Y87.586 E0.06364
G1 X150.886 Y87.590 E1.62519
G1 X151.835 Y87.774 E0.03029
G1 X152.743 Y88.165 E0.03101
G1 X153.962 Y89.188 E0.04990
G1 X154.753 Y90.406 E0.04551
G1 X155.113 Y91.789 E0.04481
G1 X155.113 Y118.210 E0.82841
G1 X154.815 Y119.433 E0.03947
G1 X154.406 Y120.249 E0.02862
G1 X153.508 Y121.261 E0.04242
G1 X152.870 Y121.765 E0.02550
G1 X150.947 Y122.413 E0.06363
G1 X99.090 Y122.413 E1.62592
G1 X97.867 Y122.115 E0.03947
G1 X97.051 Y121.706 E0.02862
G1 X96.039 Y120.808 E0.04242
G1 X95.535 Y120.170 E0.02550
G1 X94.887 Y118.247 E0.06363
G1 X94.887 Y91.790 E0.82952
G1 X95.185 Y90.567 E0.03947
G1 X95.594 Y89.751 E0.02862
G1 X96.492 Y88.739 E0.04242
G1 X97.083 Y88.273 E0.02362
G1 X97.316 Y88.569 F10800.000
G1 F1200
G1 X99.084 Y87.964 E0.05860
G1 X150.868 Y87.967 E1.62364
G1 X151.741 Y88.140 E0.02791
G1 X152.566 Y88.499 E0.02823
G1 X153.697 Y89.458 E0.04647
G1 X154.396 Y90.532 E0.04018
G1 X154.736 Y91.813 E0.04157
G1 X154.736 Y118.186 E0.82690
G1 X154.455 Y119.320 E0.03664
G1 X154.082 Y120.056 E0.02585
G1 X153.239 Y120.996 E0.03960
G1 X152.663 Y121.448 E0.02295
G1 X150.916 Y122.036 E0.05778
G1 X99.114 Y122.036 E1.62423
G1 X97.980 Y121.755 E0.03664
G1 X97.244 Y121.382 E0.02585
G1 X96.304 Y120.539 E0.03960
G1 X95.852 Y119.963 E0.02295
G1 X95.264 Y118.216 E0.05778
G1 X95.264 Y91.814 E0.82783
G1 X95.545 Y90.680 E0.03664
G1 X95.918 Y89.944 E0.02585
G1 X96.761 Y89.004 E0.03960
G1 X97.268 Y88.606 E0.02021
G1 X97.500 Y88.903 F10800.000
G1 F1200
G1 X97.544 Y88.869 E0.00173
G1 X99.115 Y88.341 E0.05197
G1 X150.848 Y88.344 E1.62208
G1 X151.646 Y88.505 E0.02550
G1 X152.388 Y88.833 E0.02545
G1 X153.430 Y89.726 E0.04302
G1 X154.063 Y90.710 E0.03669
G1 X154.359 Y91.838 E0.03655
G1 X154.359 Y118.162 E0.82540
G1 X154.095 Y119.206 E0.03376
G1 X153.758 Y119.860 E0.02308
G1 X152.971 Y120.730 E0.03679
G1 X152.457 Y121.131 E0.02043
G1 X150.886 Y121.659 E0.05197
G1 X99.138 Y121.659 E1.62252
G1 X98.094 Y121.395 E0.03376
G1 X97.440 Y121.058 E0.02308
G1 X96.570 Y120.271 E0.03679
G1 X96.169 Y119.757 E0.02043
G1 X95.641 Y118.186 E0.05197
G1 X95.641 Y91.838 E0.82612
G1 X95.905 Y90.794 E0.03376
G1 X96.242 Y90.140 E0.02308
G1 X97.029 Y89.270 E0.03679
G1 X97.453 Y88.940 E0.01682
G1 X97.749 Y89.187 F10800.000
G1 F1200
G1 X99.145 Y88.718 E0.04619
G1 X150.829 Y88.721 E1.62050
G1 X151.548 Y88.870 E0.02304
G1 X152.208 Y89.165 E0.02266
G1 X153.162 Y89.992 E0.03960
G1 X153.706 Y90.837 E0.03149
G1 X153.982 Y91.863 E0.03331
G1 X153.982 Y118.138 E0.82383
G1 X153.735 Y119.089 E0.03082
G1 X153.436 Y119.663 E0.02030
G1 X152.704 Y120.463 E0.03399
G1 X152.251 Y120.813 E0.01793
G1 X150.855 Y121.282 E0.04619
G1 X99.162 Y121.282 E1.62079
G1 X98.211 Y121.035 E0.03082
G1 X97.637 Y120.736 E0.02030
G1 X96.837 Y120.004 E0.03399
G1 X96.487 Y119.551 E0.01793
G1 X96.018 Y118.155 E0.04619
G1 X96.018 Y91.862 E0.82439
G1 X96.265 Y90.911 E0.03082
G1 X96.564 Y90.337 E0.02030
G1 X97.296 Y89.537 E0.03399
G1 X97.701 Y89.224 E0.01605
G1 X97.930 Y89.523 F10800.000
G1 F1200
G1 X99.176 Y89.095 E0.04130
G1 X150.810 Y89.098 E1.61894
G1 X151.413 Y89.223 E0.01933
G1 X152.028 Y89.497 E0.02110
G1 X152.892 Y90.257 E0.03609
G1 X153.372 Y91.014 E0.02809
G1 X153.605 Y91.887 E0.02835
G1 X153.605 Y118.113 E0.82228
G1 X153.377 Y118.971 E0.02783
G1 X153.115 Y119.464 E0.01752
G1 X152.439 Y120.195 E0.03121
G1 X152.047 Y120.494 E0.01546
G1 X150.824 Y120.905 E0.04045
G1 X99.187 Y120.905 E1.61904
G1 X98.329 Y120.677 E0.02783
G1 X97.836 Y120.415 E0.01752
G1 X97.105 Y119.739 E0.03121
G1 X96.806 Y119.347 E0.01546
G1 X96.395 Y118.124 E0.04045
G1 X96.395 Y91.887 E0.82265
G1 X96.623 Y91.029 E0.02783
G1 X96.885 Y90.536 E0.01752
G1 X97.561 Y89.805 E0.03121
G1 X97.882 Y89.559 E0.01269
G1 X98.155 Y89.825 F10800.000
G1 F1200
G1 X99.206 Y89.472 E0.03476
G1 X150.789 Y89.476 E1.61735
M73 Q3 S26
M73 P3 R26
G1 X151.314 Y89.587 E0.01681
G1 X151.845 Y89.828 E0.01829
G1 X152.622 Y90.521 E0.03263
G1 X153.016 Y91.141 E0.02306
G1 X153.228 Y91.913 E0.02510
G1 X153.228 Y118.087 E0.82066
G1 X153.020 Y118.849 E0.02477
G1 X152.796 Y119.262 E0.01474
G1 X152.175 Y119.925 E0.02845
G1 X151.845 Y120.175 E0.01301
G1 X150.794 Y120.528 E0.03476
G1 X99.213 Y120.528 E1.61727
G1 X98.451 Y120.320 E0.02477
G1 X98.038 Y120.096 E0.01474
G1 X97.375 Y119.475 E0.02845
G1 X97.125 Y119.145 E0.01301
G1 X96.772 Y118.094 E0.03476
G1 X96.772 Y91.913 E0.82087
G1 X96.980 Y91.151 E0.02477
G1 X97.204 Y90.738 E0.01474
G1 X97.825 Y90.075 E0.02845
G1 X98.108 Y89.861 E0.01113
G1 F8640
G1 X99.206 Y89.472 E-0.26916
G1 X101.332 Y89.472 E-0.49084
G1 E-0.04000 F2100.00000
G1 Z0.800 F10800.000
G1 X99.237 Y89.849
G1 Z0.200
G1 E0.80000 F2100.00000
G1 F1200
G1 X150.768 Y89.853 E1.61572
G1 X151.211 Y89.950 E0.01423
G1 X151.659 Y90.158 E0.01548
G1 X152.350 Y90.783 E0.02920
G1 X152.662 Y91.271 E0.01818
G1 X152.851 Y91.940 E0.02179
G1 X152.851 Y118.060 E0.81897
G1 X152.663 Y118.724 E0.02162
G1 X152.478 Y119.057 E0.01196
G1 X151.914 Y119.653 E0.02573
G1 X151.643 Y119.855 E0.01059
G1 X150.763 Y120.151 E0.02912
G1 X99.240 Y120.151 E1.61547
G1 X98.576 Y119.963 E0.02162
G1 X98.243 Y119.778 E0.01196
G1 X97.647 Y119.214 E0.02573
G1 X97.445 Y118.943 E0.01059
G1 X97.149 Y118.063 E0.02912
G1 X97.149 Y91.940 E0.81907
G1 X97.337 Y91.276 E0.02162
G1 X97.522 Y90.943 E0.01196
G1 X98.086 Y90.347 E0.02573
G1 X98.357 Y90.145 E0.01059
G1 X99.180 Y89.868 E0.02724
G1 X99.268 Y90.226 F10800.000
G1 F1200
G1 X150.746 Y90.230 E1.61405
G1 X151.105 Y90.313 E0.01157
G1 X151.471 Y90.485 E0.01268
G1 X152.076 Y91.043 E0.02580
G1 X152.308 Y91.405 E0.01347
G1 X152.474 Y91.968 E0.01841
G1 X152.474 Y118.032 E0.81721
G1 X152.309 Y118.594 E0.01838
G1 X152.163 Y118.849 E0.00919
G1 X151.654 Y119.379 E0.02305
G1 X151.444 Y119.534 E0.00819
G1 X150.732 Y119.774 E0.02355
G1 X99.268 Y119.774 E1.61362
G1 X98.706 Y119.609 E0.01838
G1 X98.451 Y119.463 E0.00919
G1 X97.921 Y118.954 E0.02305
G1 X97.766 Y118.744 E0.00819
G1 X97.526 Y118.032 E0.02355
G1 X97.526 Y91.968 E0.81722
G1 X97.691 Y91.406 E0.01838
G1 X97.837 Y91.151 E0.00919
G1 X98.346 Y90.621 E0.02305
G1 X98.556 Y90.466 E0.00819
G1 X99.211 Y90.245 E0.02167
G1 X98.754 Y90.788 F10800.000
G1 F1200
G1 X99.299 Y90.603 E0.01806
G1 X150.724 Y90.607 E1.61240
G1 X150.962 Y90.662 E0.00767
G1 X151.282 Y90.813 E0.01109
G1 X151.801 Y91.301 E0.02233
G1 X151.956 Y91.542 E0.00898
G1 X152.097 Y91.998 E0.01495
G1 X152.097 Y118.002 E0.81536
G1 X151.956 Y118.459 E0.01500
G1 X151.851 Y118.636 E0.00643
G1 X151.396 Y119.103 E0.02044
G1 X151.246 Y119.212 E0.00580
G1 X150.701 Y119.397 E0.01806
G1 X99.298 Y119.397 E1.61172
G1 X98.841 Y119.256 E0.01500
G1 X98.664 Y119.151 E0.00643
G1 X98.197 Y118.696 E0.02044
G1 X98.088 Y118.546 E0.00580
G1 X97.903 Y118.001 E0.01806
G1 X97.903 Y91.998 E0.81532
G1 X98.044 Y91.541 E0.01500
G1 X98.149 Y91.364 E0.00643
G1 X98.604 Y90.897 E0.02044
G1 X98.705 Y90.824 E0.00392
G1 X98.948 Y91.112 F10800.000
G1 F1200
G1 X99.331 Y90.980 E0.01270
G1 X150.702 Y90.984 E1.61070
G1 X150.819 Y91.011 E0.00377
G1 X151.092 Y91.140 E0.00947
G1 X151.523 Y91.557 E0.01880
G1 X151.607 Y91.685 E0.00479
G1 X151.720 Y92.029 E0.01136
G1 X151.720 Y117.971 E0.81337
G1 X151.606 Y118.317 E0.01144
G1 X151.544 Y118.418 E0.00371
G1 X151.141 Y118.825 E0.01795
G1 X151.052 Y118.888 E0.00343
G1 X150.669 Y119.020 E0.01270
G1 X99.329 Y119.020 E1.60973
G1 X98.983 Y118.906 E0.01144
G1 X98.882 Y118.844 E0.00371
G1 X98.475 Y118.441 E0.01795
G1 X98.412 Y118.352 E0.00343
G1 X98.280 Y117.969 E0.01270
G1 X98.280 Y92.029 E0.81333
G1 X98.394 Y91.683 E0.01144
G1 X98.456 Y91.582 E0.00371
G1 X98.899 Y91.147 E0.01947
G1 X99.137 Y91.439 F10800.000
G1 F1200
G1 X99.364 Y91.357 E0.00757
G1 X150.650 Y91.357 E1.60802
G1 X150.900 Y91.467 E0.00856
G1 X151.243 Y91.810 E0.01522
G1 X151.343 Y92.064 E0.00856
G1 X151.343 Y117.936 E0.81117
G1 X151.261 Y118.163 E0.00757
G1 X150.890 Y118.543 E0.01666
G1 X150.636 Y118.643 E0.00856
G1 X99.364 Y118.643 E1.60757
G1 X99.137 Y118.561 E0.00757
G1 X98.757 Y118.190 E0.01666
G1 X98.657 Y117.936 E0.00856
G1 X98.657 Y92.064 E0.81117
G1 X98.757 Y91.810 E0.00856
G1 X99.091 Y91.476 E0.01480
G1 X99.337 Y91.763 F10800.000
G1 F1200
G1 X99.406 Y91.734 E0.00235
G1 X150.594 Y91.734 E1.60494
G1 X150.663 Y91.763 E0.00235
G1 X150.937 Y92.037 E0.01215
G1 X150.966 Y92.106 E0.00235
G1 X150.966 Y117.894 E0.80855
G1 X150.937 Y117.963 E0.00235
G1 X150.663 Y118.237 E0.01215
G1 X150.594 Y118.266 E0.00235
G1 X99.406 Y118.266 E1.60494
G1 X99.337 Y118.237 E0.00235
G1 X99.063 Y117.963 E0.01215
G1 X99.034 Y117.894 E0.00235
G1 X99.034 Y92.106 E0.80855
G1 X99.063 Y92.037 E0.00235
G1 X99.295 Y91.806 E0.01027
G1 X99.522 Y92.111 F10800.000
G1 F1200
G1 X150.478 Y92.111 E1.59770
G1 X150.589 Y92.222 E0.00490
G1 X150.589 Y117.778 E0.80130
G1 X150.478 Y117.889 E0.00490
G1 X99.522 Y117.889 E1.59770
M73 Q7 S25
M73 P7 R25
G1 X99.411 Y117.778 E0.00490
G1 X99.411 Y92.222 E0.80130
G1 X99.479 Y92.154 E0.00302
G1 X99.810 Y92.510 F10800.000
G1 F1200
G1 X150.190 Y92.510 E1.57963
G1 X150.190 Y117.490 E0.78323
G1 X99.810 Y117.490 E1.57963
G1 X99.810 Y92.570 E0.78135
G1 X100.205 Y92.571 F10800.000
G1 X100.187 Y92.887
G1 F1200
G1 X149.813 Y92.887 E1.55598
G1 X149.813 Y117.113 E0.75958
G1 X100.187 Y117.113 E1.55598
G1 X100.187 Y92.947 E0.75770
G1 F8640
G1 X103.479 Y92.943 E-0.76000
G1 E-0.04000 F2100.00000
G1 Z0.800 F10800.000
G1 X141.871 Y97.006
G1 Z0.200
G1 E0.80000 F2100.00000
G1 F1200
G1 X141.964 Y96.650 E0.01153
G1 X142.120 Y96.302 E0.01197
G1 X142.330 Y95.991 E0.01177
G1 X142.589 Y95.720 E0.01176
G1 X142.891 Y95.497 E0.01176
G1 X143.226 Y95.329 E0.01176
G1 X143.584 Y95.219 E0.01176
G1 X143.949 Y95.172 E0.01153
G1 X144.330 Y95.187 E0.01197
G1 X144.697 Y95.266 E0.01177
G1 X145.045 Y95.406 E0.01176
G1 X145.365 Y95.603 E0.01176
G1 X145.646 Y95.850 E0.01176
G1 X145.877 Y96.136 E0.01153
G1 X146.064 Y96.469 E0.01197
G1 X146.189 Y96.823 E0.01177
G1 X146.253 Y97.193 E0.01176
G1 X146.253 Y97.567 E0.01176
G1 X146.189 Y97.937 E0.01176
G1 X146.065 Y98.291 E0.01176
G1 X145.882 Y98.618 E0.01176
G1 X145.646 Y98.910 E0.01176
G1 X145.365 Y99.157 E0.01176
G1 X145.045 Y99.354 E0.01176
G1 X144.697 Y99.494 E0.01176
G1 X144.331 Y99.573 E0.01176
G1 X143.956 Y99.589 E0.01176
G1 X143.584 Y99.541 E0.01176
G1 X143.233 Y99.433 E0.01153
G1 X142.891 Y99.263 E0.01197
G1 X142.589 Y99.040 E0.01177
G1 X142.330 Y98.769 E0.01176
G1 X142.120 Y98.458 E0.01176
G1 X141.966 Y98.116 E0.01176
G1 X141.871 Y97.754 E0.01176
G1 X141.839 Y97.380 E0.01176
G1 X141.866 Y97.066 E0.00988
G1 X141.588 Y96.771 F10800.000
G1 X141.498 Y96.942
G1 F1200
G1 X141.607 Y96.525 E0.01353
G1 X141.789 Y96.118 E0.01398
G1 X142.036 Y95.753 E0.01380
G1 X142.339 Y95.436 E0.01377
G1 X142.692 Y95.175 E0.01377
G1 X143.085 Y94.978 E0.01377
G1 X143.505 Y94.849 E0.01377
G1 X143.932 Y94.794 E0.01353
G1 X144.378 Y94.812 E0.01398
G1 X144.808 Y94.904 E0.01380
G1 X145.216 Y95.068 E0.01377
G1 X145.590 Y95.298 E0.01377
G1 X145.919 Y95.588 E0.01377
G1 X146.190 Y95.924 E0.01353
G1 X146.409 Y96.313 E0.01398
G1 X146.556 Y96.728 E0.01380
G1 X146.630 Y97.160 E0.01377
G1 X146.630 Y97.600 E0.01377
G1 X146.556 Y98.032 E0.01377
G1 X146.409 Y98.446 E0.01377
G1 X146.195 Y98.830 E0.01377
G1 X145.919 Y99.172 E0.01377
G1 X145.590 Y99.462 E0.01377
G1 X145.216 Y99.692 E0.01377
G1 X144.808 Y99.856 E0.01377
G1 X144.379 Y99.948 E0.01377
G1 X143.940 Y99.967 E0.01377
G1 X143.505 Y99.911 E0.01377
G1 X143.092 Y99.785 E0.01353
G1 X142.693 Y99.585 E0.01398
G1 X142.339 Y99.324 E0.01380
G1 X142.036 Y99.007 E0.01377
G1 X141.790 Y98.643 E0.01377
G1 X141.609 Y98.243 E0.01377
G1 X141.498 Y97.818 E0.01377
G1 X141.461 Y97.380 E0.01377
G1 X141.493 Y97.002 E0.01189
G1 F8640
G1 X141.607 Y96.525 E-0.11329
G1 X141.789 Y96.118 E-0.10295
G1 X142.036 Y95.753 E-0.10163
G1 X142.339 Y95.436 E-0.10140
G1 X142.692 Y95.175 E-0.10140
G1 X143.085 Y94.978 E-0.10140
G1 X143.505 Y94.849 E-0.10140
G1 X143.661 Y94.829 E-0.03652
G1 E-0.04000 F2100.00000
G1 Z0.800 F10800.000
G1 X143.584 Y110.459
G1 Z0.200
G1 E0.80000 F2100.00000
G1 F1200
G1 X143.949 Y110.412 E0.01153
G1 X144.330 Y110.427 E0.01197
G1 X144.697 Y110.506 E0.01177
G1 X145.045 Y110.646 E0.01176
G1 X145.365 Y110.843 E0.01176
G1 X145.646 Y111.090 E0.01176
G1 X145.877 Y111.376 E0.01153
G1 X146.064 Y111.709 E0.01197
G1 X146.189 Y112.063 E0.01177
G1 X146.253 Y112.433 E0.01176
G1 X146.253 Y112.807 E0.01176
G1 X146.189 Y113.177 E0.01176
G1 X146.065 Y113.531 E0.01176
G1 X145.882 Y113.858 E0.01176
G1 X145.646 Y114.150 E0.01176
G1 X145.365 Y114.397 E0.01176
G1 X145.045 Y114.594 E0.01176
G1 X144.697 Y114.734 E0.01176
G1 X144.331 Y114.813 E0.01176
G1 X143.956 Y114.829 E0.01176
G1 X143.584 Y114.781 E0.01176
G1 X143.233 Y114.673 E0.01153
G1 X142.891 Y114.503 E0.01197
G1 X142.589 Y114.280 E0.01177
G1 X142.330 Y114.009 E0.01176
G1 X142.120 Y113.698 E0.01176
G1 X141.966 Y113.356 E0.01176
G1 X141.871 Y112.994 E0.01176
G1 X141.839 Y112.620 E0.01176
G1 X141.871 Y112.246 E0.01176
G1 X141.964 Y111.890 E0.01153
G1 X142.120 Y111.542 E0.01197
G1 X142.330 Y111.231 E0.01177
G1 X142.589 Y110.960 E0.01176
G1 X142.891 Y110.737 E0.01176
G1 X143.226 Y110.569 E0.01176
G1 X143.527 Y110.476 E0.00988
G1 X143.697 Y110.109 F10800.000
G1 X143.505 Y110.089
G1 F1200
G1 X143.932 Y110.034 E0.01353
G1 X144.378 Y110.052 E0.01398
G1 X144.808 Y110.144 E0.01380
G1 X145.216 Y110.308 E0.01377
G1 X145.590 Y110.538 E0.01377
G1 X145.919 Y110.828 E0.01377
G1 X146.190 Y111.164 E0.01353
G1 X146.409 Y111.553 E0.01398
G1 X146.556 Y111.968 E0.01380
G1 X146.630 Y112.400 E0.01377
G1 X146.630 Y112.840 E0.01377
G1 X146.556 Y113.272 E0.01377
G1 X146.409 Y113.686 E0.01377
G1 X146.195 Y114.070 E0.01377
