; generated by Slic3r 1.3.0 on 2019-11-26 at 20:34:53

; external perimeters extrusion width = 0.66mm (4.32mm^3/s)
; perimeters extrusion width = 0.84mm (7.97mm^3/s)
; infill extrusion width = 0.75mm (8.48mm^3/s)
; solid infill extrusion width = 0.84mm (3.19mm^3/s)
; top infill extrusion width = 0.84mm (4.78mm^3/s)
; support material extrusion width = 0.66mm (6.17mm^3/s)

M107
M190 S65 ; set bed temperature and wait for it to be reached
M104 S210 ; set temperature
G28 ; home all axes
G29
G1 Z5 F5000 ; lift nozzle

; Filament gcode

M109 S210 ; set temperature and wait for it to be reached
G21 ; set units to millimeters
G90 ; use absolute coordinates
M82 ; use absolute distances for extrusion
G92 E0
G1 E-6.50000 F1500.00000
G92 E0
G1 Z0.300 F9000.000
G1 X135.783 Y88.253 F9000.000
G1 E6.50000 F1500.00000
G1 F1200
G1 X138.253 Y85.783 E6.74208
G1 X161.747 Y85.783 E8.37000
G1 X164.217 Y88.253 E8.61208
G1 X164.217 Y111.747 E10.23999
G1 X161.747 Y114.217 E10.48207
G1 X138.253 Y114.217 E12.10999
G1 X135.783 Y111.747 E12.35207
G1 X135.783 Y88.343 E13.97375
G1 X136.338 Y88.483 F9000.000
G1 F1200
G1 X138.483 Y86.338 E14.18394
G1 X161.517 Y86.338 E15.77996
G1 X163.662 Y88.483 E15.99015
G1 X163.662 Y111.517 E17.58618
G1 X161.517 Y113.662 E17.79637
G1 X138.483 Y113.662 E19.39239
G1 X136.338 Y111.517 E19.60258
G1 X136.338 Y88.573 E21.19237
G1 X136.894 Y88.713 F9000.000
G1 F1200
G1 X138.713 Y86.894 E21.37067
G1 X161.287 Y86.894 E22.93481
G1 X163.106 Y88.713 E23.11310
G1 X163.106 Y111.287 E24.67724
G1 X161.287 Y113.106 E24.85554
G1 X138.713 Y113.106 E26.41967
G1 X136.894 Y111.287 E26.59797
G1 X136.894 Y88.803 E28.15587
G1 X137.450 Y88.944 F9000.000
G1 F1200
G1 X138.944 Y87.450 E28.30228
G1 X161.056 Y87.450 E29.83452
G1 X162.550 Y88.944 E29.98093
G1 X162.550 Y111.056 E31.51317
G1 X161.056 Y112.550 E31.65958
G1 X138.944 Y112.550 E33.19183
G1 X137.450 Y111.056 E33.33823
G1 X137.450 Y89.034 E34.86424
G1 X138.005 Y89.174 F9000.000
G1 F1200
G1 X139.174 Y88.005 E34.97876
G1 X160.826 Y88.005 E36.47911
G1 X161.995 Y89.174 E36.59363
G1 X161.995 Y110.826 E38.09398
G1 X160.826 Y111.995 E38.20850
G1 X139.174 Y111.995 E39.70885
G1 X138.005 Y110.826 E39.82337
G1 X138.005 Y89.264 E41.31749
G1 X138.561 Y89.404 F9000.000
G1 F1200
G1 X139.404 Y88.561 E41.40011
G1 X160.596 Y88.561 E42.86858
G1 X161.439 Y89.404 E42.95120
G1 X161.439 Y110.596 E44.41967
G1 X160.596 Y111.439 E44.50229
G1 X139.404 Y111.439 E45.97076
G1 X138.561 Y110.596 E46.05338
G1 X138.561 Y89.494 E47.51561
G1 E41.01561 F1500.00000
G92 E0
G1 X160.884 Y89.634 F9000.000
G1 E6.50000 F1500.00000
G1 F1200
G1 X160.884 Y110.366 E7.93657
G1 X160.366 Y110.884 E7.98731
G1 X139.634 Y110.884 E9.42388
G1 X139.116 Y110.366 E9.47462
G1 X139.116 Y89.634 E10.91119
G1 X139.634 Y89.116 E10.96192
G1 X160.366 Y89.116 E12.39850
G1 X160.820 Y89.570 E12.44300
G1 X160.328 Y89.864 F9000.000
G1 F1200
G1 X160.328 Y110.136 E13.84768
G1 X160.136 Y110.328 E13.86652
G1 X139.864 Y110.328 E15.27120
G1 X139.672 Y110.136 E15.29005
G1 X139.672 Y89.864 E16.69473
G1 X139.864 Y89.672 E16.71357
G1 X160.136 Y89.672 E18.11826
G1 X160.265 Y89.800 E18.13086
G1 E11.63086 F1500.00000
G92 E0
G1 X159.700 Y109.700 F9000.000
G1 E6.50000 F1500.00000
G1 F1200
G1 X140.300 Y109.700 E7.79602
G1 X140.300 Y90.300 E9.09205
G1 X159.700 Y90.300 E10.38807
G1 X159.700 Y109.610 E11.67809
G1 X159.120 Y109.545 F9000.000
G1 X159.164 Y109.164 F9000.000
G1 F1200
G1 X140.836 Y109.164 E12.90255
G1 X140.836 Y90.836 E14.12701
G1 X159.164 Y90.836 E15.35147
G1 X159.164 Y109.074 E16.56992
G1 X158.629 Y108.629 F9000.000
G1 F1200
G1 X141.371 Y108.629 E17.72281
G1 X141.371 Y91.371 E18.87571
G1 X158.629 Y91.371 E20.02860
G1 X158.629 Y108.539 E21.17549
G1 E14.67549 F1500.00000
G92 E0
G1 X151.515 Y100.051 F9000.000
G1 E6.50000 F1500.00000
G1 F1200
G1 X151.328 Y100.177 E6.51506
G1 X150.981 Y100.354 E6.54107
G1 X150.725 Y100.449 E6.55936
G1 X150.409 Y100.517 E6.58091
G1 X150.001 Y100.551 E6.60831
G1 X149.607 Y100.520 E6.63470
G1 X149.399 Y100.479 E6.64886
G1 X149.024 Y100.357 E6.67521
G1 X148.667 Y100.175 E6.70193
G1 X148.359 Y99.952 E6.72734
G1 X148.057 Y99.652 E6.75580
G1 X147.833 Y99.345 E6.78121
G1 X147.646 Y98.982 E6.80846
G1 X147.573 Y98.783 E6.82266
G1 X147.480 Y98.399 E6.84901
G1 X147.449 Y98.000 E6.87575
G1 X147.480 Y97.607 E6.90210
G1 X147.521 Y97.399 E6.91626
G1 X147.643 Y97.024 E6.94261
G1 X147.822 Y96.672 E6.96896
G1 X147.940 Y96.496 E6.98312
G1 X148.192 Y96.201 E7.00907
G1 X148.348 Y96.057 E7.02322
G1 X148.655 Y95.833 E7.04864
G1 X149.023 Y95.643 E7.07628
G1 X149.399 Y95.521 E7.10267
G1 X149.607 Y95.480 E7.11682
G1 X149.986 Y95.450 E7.14224
G1 X150.398 Y95.480 E7.16987
G1 X150.783 Y95.573 E7.19626
G1 X150.976 Y95.644 E7.21003
G1 X151.163 Y95.730 E7.22379
G1 X151.488 Y95.928 E7.24921
G1 X151.803 Y96.196 E7.27684
G1 X152.060 Y96.496 E7.30323
G1 X152.178 Y96.672 E7.31740
G1 X152.354 Y97.019 E7.34335
G1 X152.449 Y97.275 E7.36164
G1 X152.517 Y97.591 E7.38319
G1 X152.551 Y97.999 E7.41059
G1 X152.520 Y98.399 E7.43736
G1 X152.431 Y98.769 E7.46276
G1 X152.354 Y98.981 E7.47783
G1 X152.175 Y99.333 E7.50423
G1 X151.943 Y99.652 E7.53057
G1 X151.799 Y99.807 E7.54472
G1 X151.583 Y99.992 E7.56372
G1 X151.515 Y100.051 F9000.000
G1 X151.815 Y100.495 F9000.000
G1 F1200
G1 X151.601 Y100.640 E7.58100
G1 X151.196 Y100.846 E7.61132
G1 X150.875 Y100.964 E7.63423
G1 X150.488 Y101.048 E7.66064
G1 X150.002 Y101.088 E7.69326
G1 X149.533 Y101.051 E7.72465
G1 X149.263 Y100.998 E7.74304
G1 X148.818 Y100.853 E7.77431
G1 X148.387 Y100.633 E7.80664
G1 X148.020 Y100.368 E7.83687
G1 X147.642 Y99.993 E7.87245
G1 X147.376 Y99.627 E7.90272
G1 X147.155 Y99.198 E7.93492
G1 X147.059 Y98.938 E7.95342
G1 X146.950 Y98.483 E7.98469
G1 X146.912 Y98.000 E8.01707
G1 X146.949 Y97.533 E8.04834
G1 X147.002 Y97.263 E8.06673
G1 X147.147 Y96.818 E8.09800
G1 X147.359 Y96.401 E8.12927
G1 X147.512 Y96.172 E8.14766
G1 X147.806 Y95.829 E8.17783
G1 X148.007 Y95.642 E8.19617
G1 X148.373 Y95.376 E8.22644
G1 X148.816 Y95.147 E8.25974
G1 X149.263 Y95.002 E8.29113
G1 X149.533 Y94.949 E8.30947
G1 X149.984 Y94.912 E8.33974
G1 X150.481 Y94.949 E8.37304
G1 X150.938 Y95.059 E8.40443
G1 X151.415 Y95.257 E8.43893
G1 X151.802 Y95.493 E8.46920
G1 X152.183 Y95.815 E8.50250
G1 X152.488 Y96.172 E8.53389
G1 X152.641 Y96.401 E8.55228
G1 X152.846 Y96.804 E8.58245
G1 X152.964 Y97.125 E8.60536
G1 X153.048 Y97.512 E8.63176
G1 X153.088 Y97.998 E8.66439
G1 X153.050 Y98.482 E8.69684
G1 X152.945 Y98.923 E8.72707
G1 X152.847 Y99.194 E8.74638
G1 X152.633 Y99.614 E8.77781
G1 X152.358 Y99.992 E8.80908
G1 X152.172 Y100.194 E8.82743
G1 X151.886 Y100.439 E8.85259
G1 X152.115 Y100.938 F9000.000
G1 F1200
G1 X151.874 Y101.102 E8.87207
G1 X151.412 Y101.337 E8.90671
G1 X151.025 Y101.480 E8.93425
G1 X150.568 Y101.579 E8.96550
G1 X150.003 Y101.626 E9.00335
G1 X149.460 Y101.583 E9.03974
G1 X149.128 Y101.517 E9.06235
G1 X148.613 Y101.350 E9.09855
G1 X148.107 Y101.092 E9.13649
G1 X147.682 Y100.784 E9.17155
G1 X147.441 Y100.564 E9.19330
G1 X147.228 Y100.333 E9.21429
G1 X146.918 Y99.909 E9.24941
G1 X146.664 Y99.414 E9.28656
G1 X146.546 Y99.094 E9.30936
G1 X146.419 Y98.567 E9.34556
G1 X146.375 Y98.000 E9.38356
G1 X146.417 Y97.460 E9.41976
G1 X146.483 Y97.128 E9.44237
G1 X146.650 Y96.613 E9.47857
G1 X146.896 Y96.130 E9.51476
G1 X147.084 Y95.848 E9.53737
G1 X147.419 Y95.457 E9.57176
G1 X147.667 Y95.228 E9.59430
G1 X148.091 Y94.918 E9.62942
G1 X148.610 Y94.651 E9.66837
G1 X149.128 Y94.483 E9.70477
G1 X149.459 Y94.417 E9.72731
G1 X149.983 Y94.375 E9.76242
G1 X150.564 Y94.418 E9.80138
G1 X151.094 Y94.546 E9.83777
G1 X151.668 Y94.783 E9.87928
G1 X152.117 Y95.057 E9.91440
G1 X152.562 Y95.434 E9.95335
G1 X152.916 Y95.848 E9.98975
G1 X153.104 Y96.130 E10.01236
G1 X153.337 Y96.588 E10.04675
G1 X153.480 Y96.975 E10.07429
G1 X153.579 Y97.432 E10.10554
G1 X153.626 Y97.997 E10.14339
G1 X153.581 Y98.566 E10.18152
G1 X153.459 Y99.077 E10.21658
G1 X153.339 Y99.408 E10.24014
G1 X153.091 Y99.894 E10.27659
G1 X152.773 Y100.333 E10.31279
G1 X152.544 Y100.580 E10.33533
G1 X152.188 Y100.885 E10.36665
G1 X152.997 Y100.857 F9000.000
G1 F1200
G1 X158.301 Y95.552 E10.87660
G1 X158.301 Y94.782 E10.92900
G1 X153.803 Y99.281 E11.36150
G1 X153.903 Y98.858 E11.39103
G1 X153.942 Y98.371 E11.42426
G1 X158.301 Y94.011 E11.84339
G1 X158.301 Y93.240 E11.89579
G1 X153.907 Y97.634 E12.31821
G1 X153.774 Y96.997 E12.36246
G1 X158.301 Y92.469 E12.79773
G1 X158.301 Y91.699 E12.85013
G1 X153.552 Y96.448 E13.30670
G1 X153.280 Y95.950 E13.34530
G1 X157.531 Y91.699 E13.75397
G1 X156.760 Y91.699 E13.80637
G1 X152.946 Y95.512 E14.17298
G1 X152.733 Y95.262 E14.19536
G1 X152.567 Y95.121 E14.21015
G1 X155.989 Y91.699 E14.53918
G1 X155.218 Y91.699 E14.59158
G1 X152.138 Y94.779 E14.88767
G1 X151.654 Y94.492 E14.92593
G1 X154.448 Y91.699 E15.19451
G1 X153.677 Y91.699 E15.24691
G1 X151.109 Y94.267 E15.49379
G1 X150.495 Y94.109 E15.53684
G1 X152.906 Y91.699 E15.76861
G1 X152.135 Y91.699 E15.82101
G1 X149.787 Y94.047 E16.04681
G1 X149.177 Y94.094 E16.08839
G1 X148.917 Y94.146 E16.10636
G1 X151.365 Y91.699 E16.34162
G1 X150.594 Y91.699 E16.39401
G1 X147.646 Y94.646 E16.67739
G1 X147.118 Y95.022 E16.72146
G1 X146.824 Y95.293 E16.74866
G1 X146.448 Y95.733 E16.78795
G1 X146.225 Y96.067 E16.81528
G1 E10.31528 F1500.00000
G92 E0
G1 X142.115 Y91.699 F9000.000
G1 E6.50000 F1500.00000
G1 F1200
G1 X141.699 Y92.115 E6.54007
G1 X141.699 Y92.886 E6.59246
G1 X142.886 Y91.699 E6.70662
G1 X143.657 Y91.699 E6.75902
G1 X141.699 Y93.657 E6.94728
G1 X141.699 Y94.428 E6.99968
G1 X144.428 Y91.699 E7.26203
G1 X145.198 Y91.699 E7.31443
G1 X141.699 Y95.198 E7.65089
G1 X141.699 Y95.969 E7.70328
G1 X145.969 Y91.699 E8.11384
G1 X146.740 Y91.699 E8.16623
G1 X141.699 Y96.740 E8.65088
G1 X141.699 Y97.511 E8.70328
G1 X147.511 Y91.699 E9.26203
G1 X148.281 Y91.699 E9.31442
G1 X141.699 Y98.281 E9.94727
G1 X141.699 Y99.052 E9.99967
G1 X149.052 Y91.699 E10.70661
G1 X149.823 Y91.699 E10.75901
G1 X141.699 Y99.823 E11.54005
G1 X141.699 Y100.594 E11.59245
G1 X146.642 Y95.651 E12.06766
G1 X146.362 Y96.199 E12.10947
G1 X146.172 Y96.784 E12.15132
G1 X146.146 Y96.917 E12.16055
G1 X141.699 Y101.365 E12.58808
G1 X141.699 Y102.135 E12.64047
G1 X146.046 Y97.788 E13.05840
G1 X146.109 Y98.495 E13.10667
G1 X141.699 Y102.906 E13.53071
G1 X141.699 Y103.677 E13.58311
G1 X146.266 Y99.110 E14.02217
G1 X146.381 Y99.422 E14.04480
G1 X146.498 Y99.649 E14.06212
G1 X141.699 Y104.448 E14.52348
G1 X141.699 Y105.218 E14.57587
G1 X146.781 Y100.136 E15.06449
G1 X147.118 Y100.570 E15.10184
G1 X141.699 Y105.989 E15.62283
G1 X141.699 Y106.760 E15.67522
G1 X147.507 Y100.951 E16.23363
G1 X147.949 Y101.280 E16.27108
G1 X141.699 Y107.531 E16.87200
G1 X141.699 Y108.301 E16.92439
G1 X148.448 Y101.552 E17.57323
G1 X148.615 Y101.638 E17.58601
G1 X149.006 Y101.765 E17.61395
G1 X142.469 Y108.301 E18.24237
G1 X143.240 Y108.301 E18.29477
G1 X149.632 Y101.909 E18.90930
G1 X150.212 Y101.955 E18.94884
G1 X150.371 Y101.942 E18.95964
G1 X144.011 Y108.301 E19.57105
G1 X144.782 Y108.301 E19.62344
G1 X151.272 Y101.811 E20.24738
G1 X151.383 Y101.787 E20.25512
G1 X151.835 Y101.620 E20.28785
G1 X152.354 Y101.356 E20.32749
G1 X152.699 Y101.123 E20.35579
G1 X152.923 Y100.931 E20.37578
G1 X145.552 Y108.301 E21.08432
G1 X146.323 Y108.301 E21.13672
G1 X158.301 Y96.323 E22.28825
G1 X158.301 Y97.094 E22.34064
G1 X147.094 Y108.301 E23.41808
G1 X147.865 Y108.301 E23.47047
G1 X158.301 Y97.865 E24.47381
G1 X158.301 Y98.635 E24.52620
G1 X148.635 Y108.301 E25.45544
G1 X149.406 Y108.301 E25.50784
G1 X158.301 Y99.406 E26.36298
G1 X158.301 Y100.177 E26.41537
G1 X150.177 Y108.301 E27.19641
G1 X150.948 Y108.301 E27.24881
G1 X158.301 Y100.948 E27.95575
G1 X158.301 Y101.719 E28.00815
G1 X151.719 Y108.301 E28.64099
G1 X152.489 Y108.301 E28.69339
G1 X158.301 Y102.489 E29.25214
G1 X158.301 Y103.260 E29.30453
G1 X153.260 Y108.301 E29.78919
G1 X154.031 Y108.301 E29.84158
G1 X158.301 Y104.031 E30.25213
G1 X158.301 Y104.802 E30.30453
G1 X154.802 Y108.301 E30.64098
G1 X155.572 Y108.301 E30.69338
G1 X158.301 Y105.572 E30.95574
G1 X158.301 Y106.343 E31.00813
G1 X156.343 Y108.301 E31.19639
G1 X157.114 Y108.301 E31.24879
G1 X158.301 Y107.114 E31.36295
G1 X158.301 Y107.885 E31.41535
G1 X157.885 Y108.301 E31.45541
G1 E24.95541 F1500.00000
G92 E0
G1 Z0.300 F9000.000
G1 Z0.500 F9000.000
G1 X151.870 Y111.500 F9000.000
G1 E6.50000 F1500.00000
G1 F3000
G1 X151.870 Y110.990 E6.52617
G1 X148.130 Y110.990 E6.71807
G1 X148.130 Y111.500 E6.74424
G1 X151.870 Y111.500 E6.93614
G1 E0.43614 F1500.00000
G92 E0
G1 Z0.500 F9000.000
G1 X152.386 Y101.307 F9000.000
G1 E6.50000 F1500.00000
G1 F1800
G1 X152.178 Y101.460 E6.51708
G1 X151.607 Y101.759 E6.55981
G1 X151.229 Y101.898 E6.58651
G1 X150.640 Y102.039 E6.62665
G1 X150.000 Y102.090 E6.66918
G1 X149.396 Y102.042 E6.70932
G1 X149.011 Y101.966 E6.73536
G1 X148.435 Y101.779 E6.77550
G1 X147.863 Y101.487 E6.81804
G1 X147.373 Y101.131 E6.85817
G1 X147.111 Y100.889 E6.88183
G1 X146.869 Y100.627 E6.90548
G1 X146.513 Y100.137 E6.94562
G1 X146.221 Y99.565 E6.98815
G1 X146.034 Y98.989 E7.02829
G1 X145.958 Y98.604 E7.05434
G1 X145.910 Y98.000 E7.09447
G1 X145.958 Y97.396 E7.13461
G1 X146.034 Y97.011 E7.16066
G1 X146.221 Y96.435 E7.20079
G1 X146.496 Y95.895 E7.24093
G1 X146.715 Y95.569 E7.26698
G1 X147.085 Y95.136 E7.30472
G1 X147.370 Y94.872 E7.33050
G1 X147.822 Y94.540 E7.36764
G1 X148.425 Y94.225 E7.41277
G1 X149.011 Y94.034 E7.45356
G1 X149.392 Y93.958 E7.47934
G1 X149.951 Y93.912 E7.51648
G1 X150.630 Y93.958 E7.56161
G1 X151.229 Y94.102 E7.60240
G1 X151.563 Y94.225 E7.62606
G1 X151.884 Y94.373 E7.64945
G1 X152.363 Y94.664 E7.68659
G1 X152.886 Y95.101 E7.73172
G1 X153.285 Y95.569 E7.77251
G1 X153.504 Y95.895 E7.79856
G1 X153.762 Y96.403 E7.83630
G1 X153.898 Y96.771 E7.86234
G1 X154.039 Y97.360 E7.90248
G1 X154.090 Y98.000 E7.94501
G1 X154.042 Y98.604 E7.98515
G1 X153.966 Y98.989 E8.01120
G1 X153.780 Y99.561 E8.05107
G1 X153.528 Y100.060 E8.08806
G1 X153.293 Y100.422 E8.11671
G1 X152.915 Y100.864 E8.15525
G1 X152.630 Y101.128 E8.18103
G1 X152.458 Y101.254 E8.19513
G1 X151.914 Y100.665 F9000.000
G1 F1800
G1 X151.755 Y100.781 E8.20822
G1 X151.283 Y101.029 E8.24356
G1 X150.997 Y101.134 E8.26375
G1 X150.515 Y101.250 E8.29661
G1 X150.000 Y101.290 E8.33083
G1 X149.506 Y101.251 E8.36369
G1 X149.212 Y101.193 E8.38351
G1 X148.741 Y101.040 E8.41637
G1 X148.281 Y100.805 E8.45059
G1 X147.880 Y100.514 E8.48346
G1 X147.486 Y100.120 E8.52035
G1 X147.195 Y99.719 E8.55322
G1 X146.960 Y99.259 E8.58744
G1 X146.807 Y98.788 E8.62030
G1 X146.749 Y98.494 E8.64012
G1 X146.710 Y98.000 E8.67298
G1 X146.749 Y97.506 E8.70584
G1 X146.807 Y97.212 E8.72566
G1 X146.960 Y96.741 E8.75852
G1 X147.185 Y96.299 E8.79139
G1 X147.351 Y96.050 E8.81120
G1 X147.660 Y95.689 E8.84271
G1 X147.878 Y95.488 E8.86237
G1 X148.245 Y95.219 E8.89253
G1 X148.736 Y94.962 E8.92923
G1 X149.212 Y94.807 E8.96246
G1 X149.503 Y94.749 E8.98213
G1 X149.957 Y94.711 E9.01228
G1 X150.509 Y94.749 E9.04898
G1 X150.997 Y94.866 E9.08221
G1 X151.258 Y94.962 E9.10067
G1 X151.509 Y95.078 E9.11899
G1 X151.898 Y95.314 E9.14914
G1 X152.323 Y95.669 E9.18584
G1 X152.649 Y96.050 E9.21907
G1 X152.815 Y96.299 E9.23889
G1 X153.031 Y96.723 E9.27040
G1 X153.134 Y97.003 E9.29021
G1 X153.250 Y97.485 E9.32307
G1 X153.290 Y98.000 E9.35729
G1 X153.251 Y98.494 E9.39016
G1 X153.193 Y98.788 E9.40997
G1 X153.041 Y99.257 E9.44269
G1 X152.836 Y99.662 E9.47276
G1 X152.653 Y99.944 E9.49506
G1 X152.340 Y100.311 E9.52702
G1 X151.987 Y100.611 E9.55774
G1 X151.496 Y100.094 F9000.000
G1 F1800
G1 X151.380 Y100.180 E9.56513
G1 X150.995 Y100.381 E9.58742
G1 X150.791 Y100.456 E9.59857
G1 X150.404 Y100.549 E9.61902
G1 X150.000 Y100.581 E9.63980
G1 X149.603 Y100.550 E9.66025
G1 X149.391 Y100.508 E9.67131
G1 X149.012 Y100.385 E9.69176
G1 X148.651 Y100.201 E9.71254
G1 X148.329 Y99.966 E9.73298
G1 X148.034 Y99.671 E9.75443
G1 X147.799 Y99.349 E9.77487
G1 X147.615 Y98.988 E9.79565
G1 X147.492 Y98.609 E9.81610
G1 X147.450 Y98.397 E9.82716
G1 X147.419 Y98.000 E9.84761
G1 X147.450 Y97.603 E9.86806
G1 X147.492 Y97.391 E9.87912
G1 X147.615 Y97.012 E9.89957
G1 X147.796 Y96.657 E9.92001
